X: 33780
T: Raven's Wing, The
R: reel
M: 4/4
K: Aminor
ABcd eA ~A2|eAfd eBcB|ABcd eAce|dBGB dcBG|
ABcd eA ~A2|eAfd edcd|e2 ae gece|1 dcBG A4:|2 dcBG ABcd||
|:e2 ~a2 agea|gede dBAB|G2 (3ABc dGec|gceg aged|
e2 ae gede|ae~e2 edcd|e2 ae gece|1 dcBG ABcd:|2 dcBG A3 f||

